X:1
T:Inverness, SM
T:Inverness, SM
T:Lowell Mason, 1835
T:Public Domain Courtesy of the Cyber Hymnal™
C:Lowell Mason, 1835
Z:Public Domain
Z:Courtesy of the Cyber Hymnal™
%%score ( 1 2 ) ( 3 4 )
L:1/8
Q:1/4=145
M:2/2
K:Eb
V:1 treble 
V:2 treble 
V:3 bass 
V:4 bass 
V:1
 [EB]4 [EB]2 [EG]2 | F4 [DA]4 | [EG]6 [FB]2 | [Ee]4 [EG]4 | [DF]4 [Ec]4 | [DB]6 z2 | %6
 [FA]4 [EG]2 [DF]2 | [EG]6 [GB]2 | [FB]4 ([FA]2 [EG]2) | ([EG]4 [DF]2) [DF]2 | (G2 B4) [B,E]2 | %11
 (F2 c2) [DB]4 | E6 |] %13
V:2
 x8 | F4 x4 | x8 | x8 | x8 | x8 | x8 | x8 | x8 | x8 | E6 x2 | C4 x4 | E6 |] %13
V:3
 [E,G,]4 [E,G,]2 [E,B,]2 | [D,B,]4 F,2 B,2 | [E,B,]6 [D,F,]2 | (G,2 C2) [E,B,]4 | %4
 [F,B,]4 [F,=A,]4 | [B,,B,]6 z2 | [B,,B,]4 [B,,B,]2 [B,,B,]2 | [E,B,]6 [E,B,]2 | [D,B,]4 [E,B,]4 | %9
 [B,,B,]6 [B,,B,]2 | (B,2 G,4) [G,,B,]2 | [A,,A,]4 [B,,F,]4 | [E,G,]6 |] %13
V:4
 x8 | x4 B,,4 | x8 | C,4 x4 | x8 | x8 | x8 | x8 | x8 | x8 | E,6 x2 | x8 | x6 |] %13

